X: 1
T: Busindre
M: 4/4
L: 1/8
R: reel
K: Fdor
|: c{a}c{B}cf cgfe | c{a}c{B}cf fgfe | dBBd fBdf | edef gccg |
c{a}c{B}cf cgfe | c{a}c{B}cf fgfe | dBBd fBdf |1 de{d}ed edeg :|2 de{d}ed (edef/g/) ||
|: acea ceac | egBe gBeg | dfBd fBdf | agfe defg |
ac/c/c/c/a ceac | egBe gBeg | dfBd fBde |1 de{d}ed (edef/g/) :|2 e4- e4 ||
